X: 2
T:Antelope Gap
L:1/8
C:JW Whatley
S:http://www.taterjoes.com/Warehouse/Fiddle/D_AntelopeGap.pdf
R:Reel
M:4/4
K:D
f2-|:"D"f2e2 f3 e | fgfe d2 fd|"A"e2 a2 e2 a2|
egfe "D"d2 AB/2c/2|ddee f2 AB/2c/2|dcee f2 fd|
"A"A2 AA B2 c2 |1 "D"[ed][fd][fd][ed] [f2d2] f2:|2 "D"[ed][fd][fd][ed] dc/B/||
|:"D"A2F2A2F2|ABAF D2 AB|A2 F2 A2 F2|
"A"E3 F E2 A2-|A2 F2 A2 F2| egfe d2 dB|
"A" A2 AA B2 c2 |1 "D" cddc d2 dc/B/:|2 "D" cddcd2f2||

